X:128
T:Angels, from the Realms of Glory
T:Gloria
L:1/8
K:G
B2 B2 B2 d2 | d3 c B2 G2 | B2 A2 B2 d2 | B3 A G4 | 
d4 edcB | c4 dcBA | B4 cBAG | A3 D D4 | 
G2 A2 B2 c2 | B4 A4 | d4 edcB | c4 dcBA | 
B4 cBAG | A3 D D4 | G2 A2 B2 c2 | B4 A4 | G8 |] 

